X: 1667
T: Anniversary Song, The
R: waltz
M: 3/4
K: Gminor
M:6/8
|:^FE|D3- D^FG|A3- A^FD|B3- BAG|d3- dcd|
e3- edc|d3- dcB|A3- ABA|1 G3- G:|2 G3||
|:A/B/c/d/e/f/|ggg ggg|gf>e f3|eee eee|ed>^c d3|
ccc ccc|cB>A Gdg|ecA B2A|G3:|

